images/provide-sun.svg

<svg width="50" height="48" viewBox="0 0 50 48" fill="none" xmlns="http://www.w3.org/2000/svg">
<path d="M49.42 34.3427C47.4763 33.9666 46.0109 35.3144 44.1758 33.306C43.6962 32.7815 43.0036 33.0772 42.7838 33.7159C41.2088 38.3 37.9324 36.0854 36.4311 32.8745C36.1402 32.2529 35.3168 32.3068 35.014 32.8745C33.9763 35.7053 31.9783 36.054 29.0192 33.9204C28.5493 33.4619 27.7783 33.6161 27.6016 34.3377C26.3134 39.6002 21.8117 38.1544 20.4248 33.8301C20.355 33.6123 20.2048 33.5066 20.0488 33.4877C19.7333 33.0473 19.0186 32.9153 18.7723 33.533C16.9982 37.9801 13.7054 37.2994 11.6558 33.5389C11.2859 32.8603 10.5221 33.0955 10.2796 33.7396C8.55589 38.3145 3.53354 38.2095 3.62297 32.7099C3.63279 32.1008 2.81515 31.9812 2.67688 32.5673C1.05911 39.4211 8.57925 40.6097 11.1842 35.5787C13.8749 38.9908 17.9098 39.6911 19.8341 35.0989C21.4758 40.1353 26.8386 41.1259 28.8319 36.1147C31.3631 38.0005 33.7744 37.7043 35.6766 35.0249C37.9966 38.7188 42.1305 40.0797 43.9656 35.5215C45.6497 36.7924 46.7669 35.9033 49.2037 36.1212C50.1132 36.2028 50.3209 34.5173 49.42 34.3427Z" fill="#00B2A0"/>
<path d="M46.3751 41.7278C45.6127 43.1248 45.3491 44.3767 43.716 45.0595C41.7057 45.9006 39.7047 43.8937 38.714 42.2481C38.3722 41.6802 37.5432 41.571 37.2239 42.2481C35.8246 45.2163 32.7254 44.4915 31.403 41.6269C31.0779 40.9222 29.9785 41.048 29.8434 41.8542C29.1003 46.2948 25.7639 46.7648 23.5294 43.5462C23.7733 42.6796 22.501 42.0898 22.1542 42.938C20.2785 47.5263 16.6165 47.0137 14.491 42.9191C14.1221 42.2085 13.2957 42.4577 13.0574 43.128C11.3301 47.9889 8.63961 45.6765 7.12985 42.3307C6.8358 41.6787 5.9972 41.9045 5.81992 42.5216C4.99485 45.3954 3.63556 45.932 1.34558 46.6754C0.914331 46.8157 0.980942 47.6503 1.45518 47.5799C4.07901 47.1898 5.51208 46.6692 6.58449 44.49C8.78769 48.3269 11.8635 49.1106 13.9273 45.0734C16.6035 48.8093 20.9024 49.2352 23.0323 44.7904C25.3982 48.3796 29.366 48.2029 30.9548 44.2917C33.0046 46.9882 35.988 47.3671 38.0522 44.3495C41.124 47.7939 47.4064 48.5648 47.6303 42.1078C47.6582 41.3377 46.7124 41.1096 46.3751 41.7278Z" fill="#00B2A0"/>
<path d="M14.1106 7.2049C13.5963 7.37182 13.3936 7.80245 13.4092 8.23722C9.76499 8.83772 7.40574 12.8477 7.12417 16.8811C6.7391 22.3996 10.9422 25.6413 15.4994 25.2296C20.1589 24.809 23.1901 20.1624 23.0532 15.1686C22.9163 10.1808 18.6794 5.71947 14.1106 7.2049ZM14.8693 22.7068C11.5247 23.0128 9.36108 20.4939 9.42503 16.8811C9.49217 13.0945 12.0937 10.5975 15.1095 9.59923C15.1647 9.58088 15.2045 9.54951 15.2494 9.52169C18.1893 10.0331 20.4126 11.2806 20.725 15.1681C21.0493 19.2005 18.3944 22.3836 14.8693 22.7068Z" fill="#00B2A0"/>
<path d="M9.87046 7.03808C9.32191 6.37246 8.71419 5.78764 8.09187 5.21051C7.47485 4.63812 6.82042 3.53063 5.9505 3.6212C5.48979 3.66914 5.1777 3.995 5.14559 4.51885C5.08455 5.51299 5.9635 6.00132 6.60281 6.50831C7.33367 7.08751 8.09293 7.60573 8.77124 8.26425C9.52387 8.99528 10.5538 7.86707 9.87046 7.03808Z" fill="#00B2A0"/>
<path d="M4.82735 10.0318C5.1198 10.0711 4.86132 10.0238 4.78409 9.99685C4.66547 9.95512 4.54923 9.9051 4.43326 9.85538C4.30189 9.79945 4.17185 9.73907 4.04208 9.67869C4.03333 9.67455 4.02855 9.67248 4.01554 9.66597C3.89188 9.40108 3.67931 9.18769 3.4057 9.0921C2.91713 8.92074 2.17406 8.51142 1.64595 8.6964C1.34739 8.80117 1.03451 9.07671 0.976388 9.44311C0.976388 9.44311 0.976122 9.44459 0.976122 9.44518C0.920923 9.79234 0.944807 10.244 1.22266 10.4855C1.37738 10.6193 1.55837 10.714 1.74706 10.7957C1.5942 10.7951 1.7176 10.8031 1.85586 10.8389C1.95379 10.8765 2.05039 10.9149 2.15123 10.9448C2.39432 11.036 2.63715 11.1286 2.87891 11.223C3.01771 11.2778 3.16075 11.2825 3.29901 11.2547C3.79607 11.4021 4.34037 11.569 4.82761 11.5359C5.71346 11.4755 5.67551 10.1463 4.82735 10.0318Z" fill="#00B2A0"/>
<path d="M3.3091 18.4885C2.93704 18.8363 2.50287 19.1088 2.07985 19.3702C1.86118 19.5054 1.63507 19.6454 1.40074 19.744C1.26035 19.8029 1.0369 19.7535 1.34581 19.8165C1.19242 19.7854 1.04699 19.7822 0.894392 19.7638C-0.391915 19.609 -0.274881 22.1993 1.14306 21.8133C1.66533 21.6713 2.19901 21.1155 2.643 20.7594C3.1581 20.3466 3.67241 19.8952 4.09702 19.3672C4.58241 18.7641 3.85606 17.9768 3.3091 18.4885Z" fill="#00B2A0"/>
<path d="M6.58672 23.6218C6.15096 24.3677 5.75369 25.1407 5.33916 25.901C4.88987 26.7247 4.12875 27.3388 4.02897 28.3244C3.96528 28.9536 4.58309 29.2652 5.03928 29.1827C5.9721 29.014 6.42723 27.6898 6.76824 26.8321C7.12014 25.9472 7.33643 25.0191 7.61826 24.1063C7.83481 23.4034 6.9219 23.0477 6.58672 23.6218Z" fill="#00B2A0"/>
<path d="M15.4027 26.3025C15.3109 25.776 14.5808 25.8011 14.4738 26.3025C14.1931 27.6204 13.8643 28.9271 13.5885 30.2462C13.5219 30.5647 13.5792 30.9331 13.8056 31.1622C13.7685 31.1069 13.7727 31.1178 13.8181 31.1945C14.088 31.6863 14.6551 31.6301 14.9348 31.1945C14.6793 31.5922 15.1158 31.0018 15.1315 30.9716C15.2344 30.7754 15.2432 30.5694 15.2541 30.3492C15.2769 29.8934 15.3249 29.4388 15.3639 28.9845C15.4406 28.0987 15.5566 27.1842 15.4027 26.3025Z" fill="#00B2A0"/>
<path d="M25.0979 27.0811C24.4305 26.0133 23.3705 25.3279 22.7639 24.2251C22.3485 23.4698 21.3974 24.1277 21.7182 24.9067C21.9964 25.5818 22.4212 26.1423 22.8599 26.6949C23.0693 26.9586 23.2837 27.2161 23.4679 27.5026C23.7192 27.8935 23.8225 28.3328 24.3124 28.4088C24.5942 28.4526 24.9158 28.3905 25.0581 28.0699C25.0713 28.0403 25.0846 28.0107 25.0976 27.9809C25.2192 27.708 25.2659 27.3502 25.0979 27.0811Z" fill="#00B2A0"/>
<path d="M28.981 19.114C27.8577 19.18 26.734 19.2433 25.6107 19.3058C24.5998 19.362 24.5998 20.9987 25.6107 21.0552C26.7343 21.1179 27.8577 21.1813 28.981 21.2467C30.2145 21.3192 30.2145 19.0421 28.981 19.114Z" fill="#00B2A0"/>
<path d="M28.9814 6.815C27.9623 6.79132 27.1386 8.1563 26.5279 8.94918C25.8716 9.80096 25.295 10.7241 24.6259 11.5646C24.1148 12.2068 24.9027 13.0962 25.4725 12.5087C26.1471 11.8126 26.7596 11.0476 27.4072 10.321C27.7728 9.91076 28.1513 9.4976 28.5663 9.14925C29.0767 8.72159 29.4777 8.58278 29.7046 7.87336C29.8731 7.34684 29.4394 6.82566 28.9814 6.815Z" fill="#00B2A0"/>
<path d="M24.085 1.24438C23.4818 1.6759 23.0795 2.37673 22.665 3.01749C22.1817 3.7645 21.7223 4.51506 21.1634 5.19636C20.5305 5.96794 21.5151 7.07809 22.1947 6.34647C22.7223 5.77823 23.1894 5.15878 23.6471 4.52068C24.1386 3.83583 24.7724 3.20868 25.1768 2.46168C25.5828 1.7123 24.7655 0.757823 24.085 1.24438Z" fill="#00B2A0"/>
<path d="M16.5488 0.217532C16.2548 -0.0725107 15.87 -0.0725107 15.5759 0.217532C14.9987 0.786963 15.2649 1.7811 15.3129 2.53906C15.3681 3.40859 15.4273 4.27724 15.4982 5.1456C15.5642 5.95535 16.5605 5.95535 16.6266 5.1456C16.6974 4.27695 16.7566 3.40889 16.8118 2.53906C16.8598 1.7814 17.126 0.786667 16.5488 0.217532Z" fill="#00B2A0"/>
</svg>

<svg width="50" height="48" fill="none" xmlns="http://www.w3.org/2000/svg"><path d="M49.42 34.343c-1.944-.376-3.41.971-5.244-1.037-.48-.524-1.172-.229-1.392.41-1.575 4.584-4.852 2.37-6.353-.842-.29-.621-1.114-.567-1.417 0-1.038 2.831-3.036 3.18-5.995 1.046-.47-.458-1.24-.304-1.417.418-1.289 5.262-5.79 3.816-7.177-.508-.07-.218-.22-.323-.376-.342-.316-.44-1.03-.573-1.277.045-1.774 4.447-5.067 3.766-7.116.006-.37-.679-1.134-.444-1.376.2-1.724 4.576-6.746 4.47-6.657-1.03.01-.608-.808-.728-.946-.142-1.618 6.854 5.902 8.043 8.507 3.012 2.69 3.412 6.726 4.112 8.65-.48 1.642 5.036 7.005 6.027 8.998 1.016 2.531 1.886 4.942 1.59 6.845-1.09 2.32 3.694 6.453 5.055 8.289.497 1.684 1.27 2.8.381 5.238.6.91.08 1.117-1.605.216-1.78zM46.375 41.728c-.762 1.397-1.026 2.649-2.659 3.331-2.01.842-4.011-1.165-5.002-2.81-.342-.569-1.17-.678-1.49 0-1.4 2.967-4.499 2.242-5.821-.622-.325-.705-1.424-.579-1.56.227-.743 4.44-4.08 4.91-6.314 1.692.244-.866-1.028-1.456-1.375-.608-1.875 4.588-5.538 4.076-7.663-.019-.369-.71-1.195-.461-1.434.209-1.727 4.86-4.417 2.548-5.927-.797-.294-.652-1.133-.427-1.31.19-.825 2.874-2.184 3.411-4.474 4.154-.432.14-.365.975.11.905 2.623-.39 4.056-.91 5.128-3.09 2.204 3.837 5.28 4.62 7.343.583 2.677 3.736 6.975 4.162 9.105-.283 2.366 3.59 6.334 3.413 7.923-.498 2.05 2.696 5.033 3.075 7.097.057 3.072 3.445 9.354 4.216 9.578-2.241.028-.77-.918-.998-1.255-.38zM14.11 7.205c-.514.167-.716.597-.7 1.032-3.645.6-6.004 4.61-6.286 8.644-.385 5.519 3.818 8.76 8.375 8.349 4.66-.421 7.691-5.068 7.554-10.061-.137-4.988-4.374-9.45-8.942-7.964zm.76 15.502c-3.345.306-5.509-2.213-5.445-5.826.067-3.787 2.669-6.284 5.684-7.282.056-.018.095-.05.14-.077 2.94.511 5.164 1.759 5.476 5.646.324 4.033-2.33 7.216-5.856 7.539zM9.87 7.038c-.548-.666-1.156-1.25-1.778-1.827-.617-.573-1.272-1.68-2.142-1.59-.46.048-.772.374-.804.898-.061.994.817 1.482 1.457 1.99.73.579 1.49 1.097 2.168 1.755.753.731 1.783-.397 1.1-1.226zM4.827 10.032c.293.04.034-.008-.043-.035-.119-.042-.235-.092-.35-.142a13.029 13.029 0 01-.392-.176l-.026-.013a1.076 1.076 0 00-.61-.574c-.489-.171-1.232-.58-1.76-.396-.299.105-.611.38-.67.747v.002c-.055.347-.031.799.247 1.04.154.134.335.229.524.31-.153 0-.03.008.109.044.098.037.194.076.295.106.243.091.486.184.728.278.139.055.282.06.42.032.497.147 1.041.314 1.529.28.885-.06.848-1.389 0-1.503zM3.31 18.488c-.373.348-.807.62-1.23.882-.219.135-.445.275-.68.374-.14.059-.363.01-.054.073-.154-.032-.299-.035-.452-.053-1.286-.155-1.169 2.435.25 2.05.521-.143 1.055-.698 1.499-1.055.515-.412 1.03-.864 1.454-1.392.485-.603-.24-1.39-.788-.879zM6.587 23.622c-.436.746-.833 1.519-1.248 2.279-.45.824-1.21 1.438-1.31 2.423-.064.63.554.941 1.01.859.933-.169 1.388-1.493 1.73-2.35.351-.886.567-1.814.85-2.727.216-.703-.697-1.058-1.032-.484zM15.403 26.302c-.092-.526-.822-.5-.93 0-.28 1.318-.609 2.625-.885 3.944-.066.319-.009.687.218.916-.037-.055-.033-.044.012.033.27.491.837.435 1.117 0-.256.397.18-.193.197-.223.102-.197.111-.403.122-.623.023-.456.07-.91.11-1.364.077-.886.193-1.8.039-2.683zM25.098 27.081c-.668-1.068-1.727-1.753-2.334-2.856-.415-.755-1.367-.097-1.046.682.278.675.703 1.235 1.142 1.788.21.264.424.521.608.808.251.39.355.83.844.906.282.044.604-.018.746-.34l.04-.088c.121-.273.168-.63 0-.9zM28.981 19.114c-1.123.066-2.247.13-3.37.192-1.011.056-1.011 1.693 0 1.75 1.123.062 2.247.125 3.37.19 1.233.073 1.233-2.204 0-2.132zM28.981 6.815c-1.019-.024-1.842 1.341-2.453 2.134-.656.852-1.233 1.775-1.902 2.616-.511.642.277 1.531.846.944.675-.696 1.288-1.461 1.935-2.188.366-.41.744-.823 1.16-1.172.51-.427.91-.566 1.138-1.276.168-.526-.266-1.047-.724-1.058zM24.085 1.244c-.603.432-1.006 1.133-1.42 1.773-.483.748-.943 1.498-1.502 2.18-.633.77.352 1.881 1.032 1.15.527-.569.994-1.188 1.452-1.826.492-.685 1.125-1.312 1.53-2.06.406-.749-.412-1.703-1.092-1.217zM16.549.218c-.294-.29-.679-.29-.973 0-.577.569-.311 1.563-.263 2.321.055.87.114 1.738.185 2.607.066.81 1.063.81 1.129 0 .07-.869.13-1.737.185-2.607.048-.758.314-1.752-.263-2.321z" fill="#00B2A0"/></svg>
